X: 43578
T: Young Luke's
R: jig
M: 6/8
K: Gmajor
|:BAG BAG|E3 EDE|G3 GAB|A3 AGE|
BAG BAG|E3 EDE|G3 ABA|G3 G3:|
|:B3 dcB|G3 GAB|cee edc|A3 ABc|
BAB dcB|G3 GAB|ADD FGA|G3 G3:|

